**kern	**text
*I"钢琴	*
*clefG2	*
*k[f#c#g#]	*
*M4/4	*
*MM165	*
=1	=1
1r	.
=2	=2
2r	.
2d	b3
=3	=3
8eL	- い
8e	i つ
8e	u も
[8eJ	o ど
8eL]	.
8e	o り
8e	i の
8eJ	o あ
=4	=4
8eL	a る
8e	u ひ
8d	i の
[8c#J	o こ
8c#L]	.
8B	o と
8B	b3
8BJ	- き
=5	=5
8eL	i み
8e	i わ
8e	a と
8eJ	o つ
8eL	u ぜ
8e	e ん
8e	n た
8eJ	a ち
=6	=6
8eL	i あ
8e	a が
8d	a り
8c#J	i い
8r	.
*clefF4	*
8B	- た
4A	b3
=7	=7
2A	- こ
2c#	o ん
=8	=8
4B	n や
4B	b3
*clefG2	*
2d	- ほ
=9	=9
2e	o し
2g#	i うぉ
=10	=10
4a	o み
4g#	i に
4a	i ゆ↑
4b	u こ↑
=11	=11
[1a	o お↑
=12	=12
1a]	.
=13	=13
1r	.
=14	=14
1r	.
=15	=15
1r	.
=16	=16
1r	.
=17	=17
1r	.
=18	=18
1r	.
=19	=19
1r	.
=20	=20
1r	.
=21	=21
1r	.
=22	=22
2r	.
4r	.
4cn	b3
=23	=23
8eL	- た囁
8e	a ま囁
8e	a に囁
8eJ	i わ囁
4e	a い囁
8eL	i こ囁
8eJ	o と囁
=24	=24
4e	o ゆ囁
8dL	u ん囁
[8c#J	n だ囁
8c#L]	.
8B	a ね囁
8cn	b3
8BJ	- な
=25	=25
8c#L	a ん
8c#	n て
8c#	e み
8c#J	i ん
8c#L	n な
8c#	a し
8d	i て
[8c#J	e い
=26	=26
8c#L]	.
8c#	i て
8d	e わ
8c#J	a ら
8BL	a あ
8BJ	a た
4A	b3
=27	=27
2A	- あ
2a	a か
=28	=28
2g#	a り↑
4a	i も
4cn	b3
=29	=29
8g#	- な↑
4.a	a あ↑
8aL	a い↑
8g#	i み
8f#	i ち
[8eJ	i お
=30	=30
2e_	.
8e]	.
4.e	b3
=31	=31
8eL	- ば
8e	a か
8e	a み
8eJ	i た
8eL	a い
8e	i に
8e	i は
8eJ	a しゃ
=32	=32
8eL	a い
8e	i で
8d	e あ
8dJ	a る
8c#L	u い
*clefF4	*
8B	i た
8B	b3
8BJ	- か
=33	=33
8c#L	a か
8c#	a え
*clefG2	*
8c#	e こ
8c#J	o ん
8c#L	n だ
8c#	a こ
8d	o ど
[8c#J	o く
=34	=34
8c#L]	.
*clefF4	*
8B	u や
8B	a ふ
8BJ	u わ
8BL	a ん
8AJ	n に
4A	b3
=35	=35
2A	- お
*clefG2	*
2c#	o し
=36	=36
4.e	i つ
8c#	u う
2c#	u ぶ
=37	=37
2B	u さ
2c#	a れ
*clefF4	*
=38	=38
4.B	e な
8B	a い
2A	i よ
=39	=39
[1A	o に
=40	=40
4.A]	.
*clefG2	*
[8cn	b3
4c]	.
4e	- ま
=41	=41
4a	a あ↑
4g#	a く↑
4a	u ら↑
[8eL	a な
32eKL]	.
16.eJJ	a息 R
=42	=42
4cn	b3
4d	- せ
4c#X	e か
4d	a い
=43	=43
4e	i か
*clefF4	*
4A	a ら
8AL	a み
16AL	i い
[16cnJJ	i あ
12c]	.
*clefG2	*
[6d	a あ
=44	=44
4d]	.
4c#	a げ
4A	e た
4cn	b3
=45	=45
8e#X	- よ
[4.f#	o お
2f#]	.
=46	=46
12gn	o ぞ
[6g#X	o お↑
4g#]	.
2e	o ら
=47	=47
2a	a わ↑
4a	b3
8aL	- ほ
8bJ	o し
=48	=48
4cc#	i が↑
8bL	a ふ↑
[8ddJ	u る↑
8dd]	.
4cc#	u よ↑
8g#	o で
=49	=49
2a	e え
4cn	b3
4e	- い
=50	=50
4dd	i つ↑
8cc#L	u か↑
[8bJ	a ら↑
8b]	.
4a	a だ↑
8a	a ろ
=51	=51
2b	o お
4cn	b3
4e	- き
=52	=52
4cc#	i み↑
8bL	i の
[8aJ	o こ
8a]	.
4g#	o と
8g#	o を
=53	=53
1a	o お↑
=54	=54
4r	.
4cn	b3
4a	- お
4b	o い↑
=55	=55
4.cc#	i か↑
8b	a け
4b	e る↑
8r	.
8b	- わ
=56	=56
4.dd	a た↑
8dd	a し↑
4cc#	i が↑
8bL	a い↑
16cc#L	i た
16bJJ	a あ↑
=57	=57
2a	a あ↑
4cn	b3
4e	- ど
=58	=58
4dd	o か↑
8cc#L	a お
[8bJ	o ね
8bL]	.
8a	e が
8a	a あ↑
8aJ	a い
=59	=59
2b	i い
4cn	b3
8eL	- お
8eJ	o ど
=60	=60
4cc#	o ろ↑
8bL	o か↑
[8aJ	a な
8a]	.
4g#	a い
8g#	i で
=61	=61
2f#	e え↑
4cn	b3
4d	- き
=62	=62
2.g#	i い↑
8aL	i て
8g#J	e よ
=63	=63
2a	o お↑
4a	b3
4e	- わ
=64	=64
2.a	a た
8bL	a し
8bJ	i の
=65	=65
[1cc#	o お↑
=66	=66
1cc#_	.
=67	=67
2cc#]	.
4r	.
4e	- こ
=68	=68
4a	o の↑
8g#L	o お
[8aJ	o も
8a]	.
4b	o い
16aLL	i を
16bJJ	o お
=69	=69
[2.a	o お↑
8aL]	.
[8aJ	o R↑
=70	=70
4a]	.
4r	.
2r	.
=71	=71
1r	.
=72	=72
1r	.
=73	=73
8eL	- あ
8e	a れ
8e	e が
8eJ	a で
8eL	e ね
8e	e ぶ
8e	u あ
8eJ	a る
=74	=74
8eL	u た
8e	a い
8d	i る
[8c#J	u べ
8c#L]	.
8BJ	e が
8r	.
8B	- き
=75	=75
8c#L	i み
8c#	i わ
8c#	a ゆ
8c#J	u び
8c#L	i さ
8c#	a す
8d	u な
8c#J	a つ
=76	=76
8c#L	u の
8c#	o だ
8d	a い
[8c#J	i さ
16c#LL]	.
16c#J	a ん
*clefF4	*
[8BJ	n か
16BLL]	.
16BJ	a く
8cnJ	b3
=77	=77
2A	- お
*clefG2	*
2a	o ぼ↑
=78	=78
2g#	o え
8a	e て
4cn	b3
8a	- そ
=79	=79
8g#	o ら
[4.a	a あ↑
8aL]	.
8g#	a うぉ
8f#	o み
[8eJ	i る
=80	=80
2e]	.
4r	.
4cn	b3
=81	=81
[8eL	- や
32eKL]	.
16.eJJ	a あ
8eL	a と
8eJ	o み
8eL	i つ
8e	u け
8e	e た
8eJ	a お
=82	=82
8eL	o り
8e	i ひ
8d	i め
8c#J	e さ
*clefF4	*
8BL	a あ
8BJ	a ま
8r	.
8B	- だ
=83	=83
8c#L	a け
8c#	e ど
*clefG2	*
8c#	o ど
8c#J	o こ
8c#L	o だ
8c#	a ろ
8d	o お
8c#J	o ひ
=84	=84
8c#L	i こ
*clefF4	*
8B	o ぼ
8B	o し
8BJ	i さ
8AL	a あ
8AJ	a ま
*clefG2	*
4cn	b3
=85	=85
2A	- こ
2c#	o れ
=86	=86
4e	e じゃ
4cn	b3
2c#X	- ひ
*clefF4	*
=87	=87
2B	i と
8B	o り
4.c#	i い
=88	=88
2B	i ぼ
16GnKL	o う
[8.AJ	u お
4A]	.
=89	=89
[1A	o ち
=90	=90
8.AL]	.
[16AJk	i息 R
4A]	.
4r	.
*clefG2	*
4e	- た
=91	=91
4a	a の
4g#	o し
4a	i げ
4e	e な
=92	=92
4r	.
4d	- ひ
4c#	i と
4d	o つ
=93	=93
4e	u と
4A	o な
4A	a り
4c#	- の
=94	=94
4d	o お
4c#	o き
4A	i み
4r	.
=95	=95
8e#X	- わ
[4.f#	a あ↑
2f#]	.
=96	=96
2g#	a た↑
2e	a し
=97	=97
[4.a	i わ↑
16aLL]	.
16aJJ	a R↑
4r	.
8aL	- な
8bJ	a に
=98	=98
4cc#	i も↑
8bL	o い
[8ddJ	i え↑
8ddL]	.
[8cc#J	e な
32cc#KLL]	.
16.cc#J	a く
8g#J	u て
=99	=99
[4.a	e え↑
32aKLL]	.
16.aJJ	e R↑
4r	.
4e	- ほ
=100	=100
4dd	o ん↑
8cc#L	n と
[8bJ	o わ
8bL]	.
8aJ	a ず
8r	.
8a	- と
=101	=101
4.b	o お↑
8b	o R↑
4r	.
4e	- き
=102	=102
4cc#	i み↑
8bL	i の
[8aJ	o こ
8a]	.
4g#	o と
8g#	o を
=103	=103
[2.a	o お↑
12a]	.
6a	o R↑
=104	=104
2r	.
4a	- ど
4b	o こ↑
=105	=105
4.cc#	o か↑
8b	a あ↑
[8bL	a で↑
32bKL]	.
16.bJJ	e R↑
8r	.
8b	- わ↑
=106	=106
2dd	a か↑
4cc#	a て↑
8bL	e い↑
16cc#L	i た
16bJJ	a あ↑
=107	=107
[4.a	a あ↑
32aKLL]	.
16.aJJ	a R↑
4r	.
4e	- み
=108	=108
4dd	i つ↑
8cc#L	u か↑
8bJ	a あ↑
8b'L	a R↑
8aJ	- た
8r	.
8a	- て
=109	=109
[4b	e え↑
32bKLL]	.
16.bJ	e R↑
8cnJ	b3
4r	.
4e	- と
=110	=110
16bKL	- ど
8.cc#J	o お↑
8bL	o き
[8aJ	i わ
8a]	.
4g#	a し
8g#	i な
=111	=111
4.f#	a あ
8f#	a い
4cn	b3
4d	- だ
=112	=112
2.g#	a め
8aL	e だ
8g#J	a よ
=113	=113
2a	o お
4cn	b3
4e	- な
=114	=114
[2a	a か
8aL]	.
8b	a な
8b	a い
8bJ	i で
=115	=115
[4.cc#	e え囁
16cc#LL]	.
[16cc#JJ	e R囁
4cc#]	.
4r	.
=116	=116
1r	.
=117	=117
4r	.
8r	.
8cn	b3
4r	.
4e	- そ
=118	=118
4a	o い
8g#L	i き
8aJ	i か
8r	.
4b	- せ
16aLL	e た
16bJJ	a あ
=119	=119
[1a	a あ
=120	=120
2.a]	.
4r	.
=121	=121
[1cc#	- あ↑
=122	=122
1cc#]	.
=123	=123
4r	.
8g#L	- つ
8f#J	u よ
8g#L	o が
8f#	a る
8g#	u わ
8f#J	a た
=124	=124
8g#L	a し
8f#	i わ
8g#	a お
8f#J	o く
8g#L	u びょ
8a	o お
8g#	o で
[8aJ	e え
=125	=125
4a]	.
8aL	- きょ
8g#J	o お
8aL	o み
8g#	i が
8a	a な
8g#J	a い
=126	=126
8aL	i よ
8g#	o お
8a	o な
8g#J	a ふ
8aL	u り
8g#	i を
8a	o し
8ddJ	i て
=127	=127
8b	e た
4.cc#	a あ↑
4cn	b3
4r	.
=128	=128
16f#KL	- だ
[8.g#J	a あ↑
2g#]	.
8f#L	a あ
8f#J	a け
=129	=129
16e#XKL	e ど
[8.f#J	o お↑
2.f#_	.
=130	=130
2f#]	.
2r	.
=131	=131
4r	.
8eL	- む
8eJ	u ね
8eL	e を
8e	o さ
8e	a す
8eJ	u い
=132	=132
8eL	i た
8f#	a み
8f#	i わ
8f#J	a ま
8f#L	a し
8f#J	i て
4f#	e く
=133	=133
4r	.
4g#	- あ↑
4a	a そ
8eL	o か
8eJ	a す
=134	=134
8cc#L	u き↑
8b	i に
8a	i な
8bJ	a る↑
8r	.
8aL	- て
8b	e こ
8aJ	o お
=135	=135
1b	o ゆ↑
=136	=136
4cc#	u う↑
4cn	b3
4a	- こ
4b	o と↑
=137	=137
[1a	o な↑
=138	=138
2a_	.
8aL]	.
8aJ	a ん
4a	n だ
=139	=139
[1b	a ね↑
=140	=140
2.b_	.
12b]	.
6b	e R↑
=141	=141
1r	.
=142	=142
1r	.
=143	=143
1r	.
=144	=144
1r	.
=145	=145
1r	.
=146	=146
1r	.
=147	=147
1r	.
=148	=148
1r	.
=149	=149
1r	.
=150	=150
1r	.
=151	=151
1r	.
=152	=152
1r	.
=153	=153
1r	.
=154	=154
1r	.
=155	=155
1r	.
=156	=156
1r	.
=157	=157
1r	.
=158	=158
1r	.
=159	=159
2r	.
[2A	- ど
=160	=160
4A]	.
8eL	o し
8d#XJ	i た
4.e	a あ
8e	a い
=161	=161
4cn	b3
*clefF4	*
4A	- い
[2B	i い
=162	=162
8BL]	.
8c#	i て
8B	e ご
[8AJ	o ら
4.A]	.
8A	a ん
=163	=163
2cn	b3
[2A	- こ
=164	=164
4A]	.
*clefG2	*
8eL	o こ
8d#XJ	o ろ
2e	o お
=165	=165
4cn	b3
4A	- の
*clefF4	*
2B	o こ
=166	=166
8BL	o え
8c#	e が
8B	a す
8BJ	u る
2A	u う
*clefG2	*
=167	=167
2cn	b3
[2e	- き
=168	=168
4e]	.
8g#L	i み
8g#J	i の
2a	o お
=169	=169
4cn	b3
4e	- と
[2b	- な
=170	=170
8bL]	.
8cc#	a り↑
8dd	i が↑
8bJ	a い↑
2cc#	i い↑
=171	=171
8.cnL	b3
[16cJk	b3
8.c]	.
16r	.
*clefF4	*
[2A	- し
=172	=172
8AL]	.
8A	i ん
8e	n じ
8dJ	i つ
*clefG2	*
2e	u う
=173	=173
4cn	b3
4A	- わ
2B	a ざ
=174	=174
8c#L	a ん
*clefF4	*
8c#	n こ
8B	o く
8BJ	u だ
[2A	a あ
=175	=175
8A]	.
8r	.
4r	.
2r	.
=176	=176
4r	.
*clefG2	*
4e	- い
4dd	i わ↑
8cc#L	a な
[8bJ	a か
=177	=177
8bL]	.
8aJ	a あ
8r	.
8a	- た
2b	a あ↑
=178	=178
4r	.
4e	- い
4cc#	i え↑
8bL	e な
[8aJ	a か
=179	=179
8aL]	.
8g#J	a あ
8r	.
8g#	- た
[2f#	a あ↑
=180	=180
8f#]	.
8r	.
4r	.
[2g#	- に
=181	=181
4g#]	.
8aL	i ど
8g#J	o と
2a	o お↑
=182	=182
4r	.
4e	- も
[2cc#	o ど↑
=183	=183
4cc#]	.
8ddL	o れ
8ccnJ	e な
4.cc#X	a あ↑
8cc#	a い
=184	=184
4r	.
4e	- あ
4dd	- の↑
8cc#L	o な
[8bJ	a つ
=185	=185
8b]	.
4a	u の
8a	o ひ
2b	i い↑
=186	=186
4r	.
4e	- き
4cc#	- ら↑
8bL	a め
[8aJ	e く
=187	=187
8a]	.
4g#	u ほ
8g#	- し
[2a	i い↑
=188	=188
2.a]	.
4r	.
=189	=189
4a	- い
4b	i ま
4.cc#	a で↑
8b	e え↑
=190	=190
4b	e も
8r	.
8b	- お↑
4dd	o も↑
8ddL	o い↑
8ddJ	i だ↑
=191	=191
4cc#	a せ↑
8bL	e る↑
16cc#L	u よ↑
16bJJ	o お↑
2a	o お↑
=192	=192
4r	.
4e	- わ
4dd'	a ら↑
8cc#L	- た↑
[8bJ	a か↑
=193	=193
8b]	.
4a	a お
8a	o も囁
2b	o お↑
=194	=194
4r	.
4e	- お
4cc#'	o こ↑
8bL	- た↑
[8aJ	a か↑
=195	=195
8a]	.
4g#	a お
8g#	o も囁
2a	o お↑
=196	=196
4r	.
4e	- だ
4cc#	a い↑
8bL	i す
[8cc#J	u き
=197	=197
8cc#L]	.
[8ddJ	i で
16ddLL]	.
16ddJ	e し
8bJ	i た
2cc#	a あ↑
=198	=198
4r	.
4e	- お
4cc#	o か
8bL	a し
[8cc#J	i い
=199	=199
8cc#]	.
4dd	i よ↑
8b	o ね
2cc#	e え↑
=200	=200
4r	.
4e	- わ
4cc#'	a か↑
8bL	- て↑
[8aJ	e た↑
=201	=201
8a]	.
4g#	a の↑
8g#	o に囁
2a	i い↑
=202	=202
4r	.
4e	- き囁
4cc#	i み↑
8bL	i の
[8cc#J	o し
=203	=203
8cc#]	.
4dd	i ら↑
8ccn	a な
4.cc#X	a あ↑
8cc#	a い↑
=204	=204
4r	.
4e	- わ
4a	a た↑
8g#L	a し
[8aJ	i だ↑
=205	=205
8a]	.
4b	a け
8b	e の
4cc#	o お↑
4r	.
=206	=206
2b	- ひ↑
4.dd	i み↑
8cc#	i い
=207	=207
2cc#	i つ↑
2r	.
=208	=208
4r	.
4e	- よ
4dd	o る↑
8cc#L	u を↑
[8bJ	o こ
=209	=209
8b]	.
4a	o え
8a	e て
2b	e え↑
=210	=210
4r	.
4e	- と
4cc#	o い↑
8bL	i お↑
8aJ	o も
=211	=211
8a	o い
4g#	i で
8g#	e の
2f#	o お↑
=212	=212
4cn	b3
4r	.
[2g#	- き
=213	=213
4g#]	.
8aL	i み
8g#J	i が
2a	a あ↑
=214	=214
4cn	b3
4e	- ゆ
[2a	u び↑
=215	=215
8aL]	.
8a	i を↑
8b	o さ
8bJ	a す
[2cc#	u う↑
=216	=216
1cc#_	.
=217	=217
1cc#]	.
=218	=218
4r	.
4e	- む
4cc#	u じゃ↑
8ddL	a き↑
[8cc#J	i な↑
=219	=219
8cc#L]	.
8b	a こ
8b	o え
8bJ	e で
[2a	e え↑
=220	=220
1a_	.
=221	=221
8a]	.
8r	.
4r	.
2r	.
==	==
*-	*-
